SVG_Azure_All/Azure AD Identity Secure Score.svg

<?xml version="1.0" encoding="UTF-8" standalone="no"?>
<!-- Generated by Microsoft Visio, SVG Export Azure AD Identity Secure Score.svg Page-1 -->

<svg
   xmlns:dc="http://purl.org/dc/elements/1.1/"
   xmlns:cc="http://creativecommons.org/ns#"
   xmlns:rdf="http://www.w3.org/1999/02/22-rdf-syntax-ns#"
   xmlns:svg="http://www.w3.org/2000/svg"
   xmlns="http://www.w3.org/2000/svg"
   xmlns:sodipodi="http://sodipodi.sourceforge.net/DTD/sodipodi-0.dtd"
   xmlns:inkscape="http://www.inkscape.org/namespaces/inkscape"
   width="0.71053934in"
   height="0.78738767in"
   viewBox="0 0 51.15898 56.6922"
   xml:space="preserve"
   class="st6"
   version="1.1"
   id="svg59"
   sodipodi:docname="Azure AD Identity Secure Score.svg"
   style="font-size:12px;overflow:visible;color-interpolation-filters:sRGB;fill:none;fill-rule:evenodd;stroke-linecap:square;stroke-miterlimit:3"
   inkscape:version="0.92.5 (2060ec1f9f, 2020-04-08)"><metadata
   id="metadata65"><rdf:RDF><cc:Work
       rdf:about=""><dc:format>image/svg+xml</dc:format><dc:type
         rdf:resource="http://purl.org/dc/dcmitype/StillImage" /></cc:Work></rdf:RDF></metadata><defs
   id="defs63" /><sodipodi:namedview
   pagecolor="#ffffff"
   bordercolor="#666666"
   borderopacity="1"
   objecttolerance="10"
   gridtolerance="10"
   guidetolerance="10"
   inkscape:pageopacity="0"
   inkscape:pageshadow="2"
   inkscape:window-width="640"
   inkscape:window-height="480"
   id="namedview61"
   showgrid="false"
   inkscape:zoom="1.7193066"
   inkscape:cx="34.104487"
   inkscape:cy="23.279613"
   inkscape:window-x="0"
   inkscape:window-y="0"
   inkscape:window-maximized="0"
   inkscape:current-layer="svg59" />
	<style
   type="text/css"
   id="style2">
	<![CDATA[
		.st1 {fill:#ff8c00;stroke:none;stroke-linecap:butt;stroke-width:12.24}
		.st2 {fill:#dd5900;fill-opacity:0.6;stroke:none;stroke-linecap:butt;stroke-width:12.24}
		.st3 {fill:#fcd116;stroke:none;stroke-linecap:butt;stroke-width:12.24}
		.st4 {fill:#dd5900;fill-opacity:0.4;stroke:none;stroke-linecap:butt;stroke-width:12.24}
		.st5 {fill:#dd5900;fill-opacity:0.3;stroke:none;stroke-linecap:butt;stroke-width:12.24}
		.st6 {fill:none;fill-rule:evenodd;font-size:12px;overflow:visible;stroke-linecap:square;stroke-miterlimit:3}
	]]>
	</style>

	<g
   id="g57"
   transform="translate(-12.239338,-12.2421)">
		<title
   id="title4">Page-1</title>
		<g
   id="group8714-1"
   transform="translate(10.8887,-34.0157)">
			<title
   id="title6">Azure AD Identity Secure Score</title>
			<g
   id="group8715-2">
				<title
   id="title8">Sheet.8715</title>
				<g
   id="shape8716-3"
   transform="translate(0,-28.3465)">
					<title
   id="title10">Sheet.8716</title>
					<path
   d="M 47.26,80.51 H 6.6 c -4.26,0 -6.6,4.72 -4.42,8.27 2.18,3.54 4.64,10.41 4.64,10.41 0.83,2.25 3.63,3.76 6.11,3.76 h 27.99 c 2.49,0 5.29,-1.51 6.11,-3.76 0,0 2.47,-6.87 4.65,-10.41 2.18,-3.55 -0.16,-8.27 -4.42,-8.27 z m 1.43,6.4 c -2.34,3.81 -4.85,10.78 -4.96,11.08 -0.31,0.84 -1.2,1.42 -2.22,1.42 H 12.35 c -1.02,0 -1.92,-0.58 -2.23,-1.44 C 10.02,97.69 7.51,90.72 5.17,86.91 A 1.933,1.95 0 0 1 5.11,84.92 c 0.22,-0.4 0.65,-0.87 1.49,-0.87 h 40.66 c 0.84,0 1.27,0.47 1.49,0.87 0.13,0.23 0.51,1.07 -0.06,1.99 z"
   class="st1"
   id="path12"
   inkscape:connector-curvature="0"
   style="fill:#ff8c00;stroke:none;stroke-width:12.23999977;stroke-linecap:butt" />
				</g>
				<g
   id="shape8717-5"
   transform="translate(29.2702,-28.3465)">
					<title
   id="title15">Sheet.8717</title>
					<path
   d="M 17.99,80.51 H 0 v 3.54 h 17.99 c 0.83,0 1.27,0.47 1.49,0.87 0.13,0.23 0.51,1.07 -0.06,1.99 -2.35,3.81 -4.86,10.78 -4.96,11.08 -0.31,0.84 -1.2,1.42 -2.22,1.42 H 0 v 3.54 h 11.65 c 2.49,0 5.29,-1.51 6.11,-3.76 0,0 2.47,-6.87 4.65,-10.41 2.18,-3.55 -0.16,-8.27 -4.42,-8.27 z"
   class="st2"
   id="path17"
   inkscape:connector-curvature="0"
   style="fill:#dd5900;fill-opacity:0.6;stroke:none;stroke-width:12.23999977;stroke-linecap:butt" />
				</g>
				<g
   id="shape8718-7"
   transform="translate(22.2453,-10.6299)">
					<title
   id="title20">Sheet.8718</title>
					<rect
   x="0"
   y="89.956497"
   width="9.3664503"
   height="12.9921"
   class="st3"
   id="rect22"
   style="fill:#fcd116;stroke:none;stroke-width:12.23999977;stroke-linecap:butt" />
				</g>
				<g
   id="shape8719-9"
   transform="translate(26.9285,-10.6299)">
					<title
   id="title25">Sheet.8719</title>
					<rect
   x="0"
   y="89.956497"
   width="4.6832299"
   height="12.9921"
   class="st4"
   id="rect27"
   style="fill:#dd5900;fill-opacity:0.4;stroke:none;stroke-width:12.23999977;stroke-linecap:butt" />
				</g>
				<g
   id="shape8720-11"
   transform="translate(11.4903)">
					<title
   id="title30">Sheet.8720</title>
					<path
   d="m 30.58,101.48 -2.17,-7.64 c -0.7,-1.63 -1.29,-2.7 -3.16,-2.7 H 5.63 c -1.87,0 -2.47,1.07 -3.16,2.7 l -2.17,7.64 c -0.3,0.7 0.25,1.47 1.06,1.47 h 28.15 c 0.81,0 1.37,-0.77 1.07,-1.47 z"
   class="st1"
   id="path32"
   inkscape:connector-curvature="0"
   style="fill:#ff8c00;stroke:none;stroke-width:12.23999977;stroke-linecap:butt" />
				</g>
				<g
   id="shape8721-13"
   transform="translate(26.9285)">
					<title
   id="title35">Sheet.8721</title>
					<path
   d="m 15.14,101.48 -2.17,-7.64 c -0.69,-1.63 -1.29,-2.7 -3.16,-2.7 H 0 v 11.81 h 14.08 c 0.8,0 1.36,-0.77 1.06,-1.47 z"
   class="st2"
   id="path37"
   inkscape:connector-curvature="0"
   style="fill:#dd5900;fill-opacity:0.6;stroke:none;stroke-width:12.23999977;stroke-linecap:butt" />
				</g>
				<g
   id="shape8722-15"
   transform="translate(22.2453,-18.8976)">
					<title
   id="title40">Sheet.8722</title>
					<path
   d="m 0,101.64 c 1.43,0.83 3.02,1.31 4.68,1.31 1.67,0 3.26,-0.48 4.69,-1.3 V 98.22 H 0 Z"
   class="st4"
   id="path42"
   inkscape:connector-curvature="0"
   style="fill:#dd5900;fill-opacity:0.4;stroke:none;stroke-width:12.23999977;stroke-linecap:butt" />
				</g>
				<g
   id="shape8723-17"
   transform="translate(10.2422,-21.2598)">
					<title
   id="title45">Sheet.8723</title>
					<path
   d="M 31.27,67.52 H 2.02 c -2.02,0 -1.91,2.34 -1.44,2.88 0.48,0.54 3.91,4.88 3.91,20.41 0,6.66 5.63,12.14 12.15,12.14 6.59,0 12.16,-5.49 12.16,-12.14 0,-15.53 3.3,-19.8 3.9,-20.41 0.6,-0.6 0.71,-2.88 -1.43,-2.88 z"
   class="st3"
   id="path47"
   inkscape:connector-curvature="0"
   style="fill:#fcd116;stroke:none;stroke-width:12.23999977;stroke-linecap:butt" />
				</g>
				<g
   id="shape8724-19"
   transform="translate(26.9285,-21.2622)">
					<title
   id="title50">Sheet.8724</title>
					<path
   d="m 0,102.95 c 6.56,-0.03 12.11,-5.5 12.11,-12.14 0,-15.53 3.31,-19.8 3.91,-20.4 0.59,-0.61 0.71,-2.89 -1.44,-2.89 H 0 Z"
   class="st5"
   id="path52"
   inkscape:connector-curvature="0"
   style="fill:#dd5900;fill-opacity:0.3;stroke:none;stroke-width:12.23999977;stroke-linecap:butt" />
				</g>
			</g>
		</g>
	</g>
</svg>

<?xml version="1.0" encoding="UTF-8" standalone="no"?>
<!DOCTYPE svg PUBLIC "-//W3C//DTD SVG 1.1//EN" "http://www.w3.org/Graphics/SVG/1.1/DTD/svg11.dtd">
<!-- Generated by Microsoft Visio, SVG Export Azure AD Identity Secure Score.svg Page-1 -->
<svg xmlns="http://www.w3.org/2000/svg" xmlns:xlink="http://www.w3.org/1999/xlink" xmlns:ev="http://www.w3.org/2001/xml-events"
		width="1.05049in" height="1.42984in" viewBox="0 0 75.6355 102.949" xml:space="preserve" color-interpolation-filters="sRGB"
		class="st6">
	<style type="text/css">
	<![CDATA[
		.st1 {fill:#ff8c00;stroke:none;stroke-linecap:butt;stroke-width:12.24}
		.st2 {fill:#dd5900;fill-opacity:0.6;stroke:none;stroke-linecap:butt;stroke-width:12.24}
		.st3 {fill:#fcd116;stroke:none;stroke-linecap:butt;stroke-width:12.24}
		.st4 {fill:#dd5900;fill-opacity:0.4;stroke:none;stroke-linecap:butt;stroke-width:12.24}
		.st5 {fill:#dd5900;fill-opacity:0.3;stroke:none;stroke-linecap:butt;stroke-width:12.24}
		.st6 {fill:none;fill-rule:evenodd;font-size:12px;overflow:visible;stroke-linecap:square;stroke-miterlimit:3}
	]]>
	</style>

	<g>
		<title>Page-1</title>
		<g id="group8519-1" transform="translate(10.8887,-34.0157)">
			<title>Azure AD Identity Secure Score</title>
			<g id="group8520-2">
				<title>Sheet.8520</title>
				<g id="shape8521-3" transform="translate(0,-28.3465)">
					<title>Sheet.8521</title>
					<path d="M47.26 80.51 L6.6 80.51 C2.34 80.51 0 85.23 2.18 88.78 C4.36 92.32 6.82 99.19 6.82 99.19 C7.65 101.44
								 10.45 102.95 12.93 102.95 L40.92 102.95 C43.41 102.95 46.21 101.44 47.03 99.19 C47.03 99.19 49.5
								 92.32 51.68 88.78 C53.86 85.23 51.52 80.51 47.26 80.51 ZM48.69 86.91 C46.35 90.72 43.84 97.69 43.73
								 97.99 C43.42 98.83 42.53 99.41 41.51 99.41 L12.35 99.41 C11.33 99.41 10.43 98.83 10.12 97.97 C10.02
								 97.69 7.51 90.72 5.17 86.91 A1.933 1.95 0 0 1 5.11 84.92 C5.33 84.52 5.76 84.05 6.6 84.05 L47.26
								 84.05 C48.1 84.05 48.53 84.52 48.75 84.92 C48.88 85.15 49.26 85.99 48.69 86.91 Z" class="st1"/>
				</g>
				<g id="shape8522-5" transform="translate(29.2702,-28.3465)">
					<title>Sheet.8522</title>
					<path d="M17.99 80.51 L0 80.51 L0 84.05 L17.99 84.05 C18.82 84.05 19.26 84.52 19.48 84.92 C19.61 85.15 19.99
								 85.99 19.42 86.91 C17.07 90.72 14.56 97.69 14.46 97.99 C14.15 98.83 13.26 99.41 12.24 99.41 L0 99.41
								 L0 102.95 L11.65 102.95 C14.14 102.95 16.94 101.44 17.76 99.19 C17.76 99.19 20.23 92.32 22.41 88.78
								 C24.59 85.23 22.25 80.51 17.99 80.51 Z" class="st2"/>
				</g>
				<g id="shape8523-7" transform="translate(22.2453,-10.6299)">
					<title>Sheet.8523</title>
					<rect x="0" y="89.9565" width="9.36645" height="12.9921" class="st3"/>
				</g>
				<g id="shape8524-9" transform="translate(26.9285,-10.6299)">
					<title>Sheet.8524</title>
					<rect x="0" y="89.9565" width="4.68323" height="12.9921" class="st4"/>
				</g>
				<g id="shape8525-11" transform="translate(11.4903,-2.84217E-13)">
					<title>Sheet.8525</title>
					<path d="M30.58 101.48 L28.41 93.84 C27.71 92.21 27.12 91.14 25.25 91.14 L5.63 91.14 C3.76 91.14 3.16 92.21 2.47
								 93.84 L0.3 101.48 C0 102.18 0.55 102.95 1.36 102.95 L29.51 102.95 C30.32 102.95 30.88 102.18 30.58
								 101.48 Z" class="st1"/>
				</g>
				<g id="shape8526-13" transform="translate(26.9285,-2.84217E-13)">
					<title>Sheet.8526</title>
					<path d="M15.14 101.48 L12.97 93.84 C12.28 92.21 11.68 91.14 9.81 91.14 L0 91.14 L0 102.95 L14.08 102.95 C14.88
								 102.95 15.44 102.18 15.14 101.48 Z" class="st2"/>
				</g>
				<g id="shape8527-15" transform="translate(22.2453,-18.8976)">
					<title>Sheet.8527</title>
					<path d="M0 101.64 C1.43 102.47 3.02 102.95 4.68 102.95 C6.35 102.95 7.94 102.47 9.37 101.65 L9.37 98.22 L0 98.22
								 L0 101.64 Z" class="st4"/>
				</g>
				<g id="shape8528-17" transform="translate(10.2422,-21.2598)">
					<title>Sheet.8528</title>
					<path d="M31.27 67.52 L2.02 67.52 C0 67.52 0.11 69.86 0.58 70.4 C1.06 70.94 4.49 75.28 4.49 90.81 C4.49 97.47
								 10.12 102.95 16.64 102.95 C23.23 102.95 28.8 97.46 28.8 90.81 C28.8 75.28 32.1 71.01 32.7 70.4 C33.3
								 69.8 33.41 67.52 31.27 67.52 Z" class="st3"/>
				</g>
				<g id="shape8529-19" transform="translate(26.9285,-21.2622)">
					<title>Sheet.8529</title>
					<path d="M0 102.95 C6.56 102.92 12.11 97.45 12.11 90.81 C12.11 75.28 15.42 71.01 16.02 70.41 C16.61 69.8 16.73
								 67.52 14.58 67.52 L0 67.52 L0 102.95 Z" class="st5"/>
				</g>
			</g>
		</g>
	</g>
</svg>
